TileServer und Tiles/svg/8/45_10.svg

<?xml version='1.0' encoding='UTF-8' standalone='no'?>
<svg viewBox="0 0 497 279" width="497pt" height="279pt" xmlns="http://www.w3.org/2000/svg" xmlns:xlink="http://www.w3.org/1999/xlink">
 <defs overflow="visible" style="stroke:none;">
  <path id="glyph0-9" d="M 0.28125 0 L 1.421875 -5.359375 L 2.140625 -5.359375 L 2.03125 -4.375 L 2.078125 -4.375 C 2.222656 -4.5625 2.367188 -4.734375 2.515625 -4.890625 C 2.671875 -5.054688 2.84375 -5.191406 3.03125 -5.296875 C 3.226562 -5.398438 3.453125 -5.453125 3.703125 -5.453125 C 3.796875 -5.453125 3.894531 -5.445312 4 -5.4375 C 4.101562 -5.4375 4.203125 -5.421875 4.296875 -5.390625 L 4.09375 -4.59375 C 3.914062 -4.632812 3.75 -4.65625 3.59375 -4.65625 C 3.257812 -4.65625 2.960938 -4.546875 2.703125 -4.328125 C 2.441406 -4.109375 2.222656 -3.828125 2.046875 -3.484375 C 1.878906 -3.148438 1.757812 -2.804688 1.6875 -2.453125 L 1.15625 0 Z M 0.28125 0 "/>
  <path id="glyph0-8" d="M 2.125 -6.25 C 1.988281 -6.25 1.875 -6.289062 1.78125 -6.375 C 1.695312 -6.457031 1.65625 -6.570312 1.65625 -6.71875 C 1.65625 -6.894531 1.703125 -7.046875 1.796875 -7.171875 C 1.898438 -7.296875 2.046875 -7.359375 2.234375 -7.359375 C 2.546875 -7.359375 2.703125 -7.207031 2.703125 -6.90625 C 2.703125 -6.695312 2.640625 -6.535156 2.515625 -6.421875 C 2.398438 -6.304688 2.269531 -6.25 2.125 -6.25 Z M 0.28125 0 L 1.421875 -5.359375 L 2.296875 -5.359375 L 1.15625 0 Z M 0.28125 0 "/>
  <path id="glyph0-7" d="M 0.265625 0 L 1.890625 -7.59375 L 2.765625 -7.59375 L 1.15625 0 Z M 0.265625 0 "/>
  <path id="glyph0-6" d="M 3.265625 0.09375 C 2.460938 0.09375 1.835938 -0.144531 1.390625 -0.625 C 0.941406 -1.113281 0.71875 -1.78125 0.71875 -2.625 C 0.71875 -3.050781 0.765625 -3.484375 0.859375 -3.921875 C 0.960938 -4.367188 1.113281 -4.785156 1.3125 -5.171875 C 1.519531 -5.566406 1.78125 -5.921875 2.09375 -6.234375 C 2.40625 -6.546875 2.765625 -6.789062 3.171875 -6.96875 C 3.585938 -7.144531 4.054688 -7.234375 4.578125 -7.234375 C 5.242188 -7.234375 5.820312 -7.101562 6.3125 -6.84375 L 5.953125 -6.09375 C 5.773438 -6.1875 5.570312 -6.269531 5.34375 -6.34375 C 5.125 -6.414062 4.867188 -6.453125 4.578125 -6.453125 C 4.078125 -6.453125 3.644531 -6.335938 3.28125 -6.109375 C 2.914062 -5.890625 2.613281 -5.59375 2.375 -5.21875 C 2.132812 -4.851562 1.957031 -4.445312 1.84375 -4 C 1.726562 -3.550781 1.671875 -3.101562 1.671875 -2.65625 C 1.671875 -2.039062 1.820312 -1.554688 2.125 -1.203125 C 2.4375 -0.859375 2.867188 -0.6875 3.421875 -0.6875 C 3.691406 -0.6875 3.957031 -0.710938 4.21875 -0.765625 C 4.488281 -0.816406 4.75 -0.890625 5 -0.984375 L 5 -0.203125 C 4.738281 -0.109375 4.472656 -0.0351562 4.203125 0.015625 C 3.941406 0.0664062 3.628906 0.09375 3.265625 0.09375 Z M 3.265625 0.09375 "/>
  <path id="glyph0-5" d=""/>
  <path id="glyph0-4" d="M 2.421875 0.09375 C 1.796875 0.09375 1.316406 -0.0820312 0.984375 -0.4375 C 0.648438 -0.800781 0.484375 -1.296875 0.484375 -1.921875 C 0.484375 -2.347656 0.539062 -2.769531 0.65625 -3.1875 C 0.78125 -3.601562 0.957031 -3.984375 1.1875 -4.328125 C 1.425781 -4.671875 1.710938 -4.941406 2.046875 -5.140625 C 2.378906 -5.347656 2.75 -5.453125 3.15625 -5.453125 C 3.664062 -5.453125 4.046875 -5.34375 4.296875 -5.125 C 4.554688 -4.90625 4.6875 -4.597656 4.6875 -4.203125 C 4.6875 -3.859375 4.578125 -3.539062 4.359375 -3.25 C 4.148438 -2.96875 3.8125 -2.738281 3.34375 -2.5625 C 2.882812 -2.394531 2.289062 -2.3125 1.5625 -2.3125 L 1.390625 -2.3125 C 1.378906 -2.257812 1.375 -2.195312 1.375 -2.125 C 1.375 -2.0625 1.375 -2.003906 1.375 -1.953125 C 1.375 -1.546875 1.472656 -1.222656 1.671875 -0.984375 C 1.867188 -0.742188 2.171875 -0.625 2.578125 -0.625 C 2.828125 -0.625 3.066406 -0.660156 3.296875 -0.734375 C 3.523438 -0.804688 3.773438 -0.910156 4.046875 -1.046875 L 4.046875 -0.296875 C 3.785156 -0.179688 3.535156 -0.0859375 3.296875 -0.015625 C 3.054688 0.0546875 2.765625 0.09375 2.421875 0.09375 Z M 1.515625 -3.03125 L 1.59375 -3.03125 C 1.988281 -3.03125 2.351562 -3.0625 2.6875 -3.125 C 3.03125 -3.195312 3.304688 -3.316406 3.515625 -3.484375 C 3.722656 -3.648438 3.828125 -3.867188 3.828125 -4.140625 C 3.828125 -4.316406 3.769531 -4.457031 3.65625 -4.5625 C 3.539062 -4.675781 3.359375 -4.734375 3.109375 -4.734375 C 2.785156 -4.734375 2.472656 -4.582031 2.171875 -4.28125 C 1.878906 -3.988281 1.660156 -3.570312 1.515625 -3.03125 Z M 1.515625 -3.03125 "/>
  <path id="glyph0-3" d="M 0.265625 0 L 1.875 -7.59375 L 2.765625 -7.59375 L 2.125 -4.578125 C 2.007812 -4.046875 1.910156 -3.632812 1.828125 -3.34375 C 1.742188 -3.050781 1.6875 -2.859375 1.65625 -2.765625 L 1.671875 -2.765625 L 4.203125 -5.359375 L 5.25 -5.359375 L 2.953125 -3.0625 L 4.375 0 L 3.40625 0 L 2.28125 -2.515625 L 1.5625 -1.9375 L 1.15625 0 Z M 0.265625 0 "/>
  <path id="glyph0-2" d="M 1.9375 0.09375 C 1.507812 0.09375 1.160156 -0.0546875 0.890625 -0.359375 C 0.617188 -0.671875 0.484375 -1.128906 0.484375 -1.734375 C 0.484375 -2.234375 0.546875 -2.707031 0.671875 -3.15625 C 0.804688 -3.601562 0.988281 -4 1.21875 -4.34375 C 1.445312 -4.6875 1.722656 -4.957031 2.046875 -5.15625 C 2.367188 -5.351562 2.722656 -5.453125 3.109375 -5.453125 C 3.460938 -5.453125 3.75 -5.359375 3.96875 -5.171875 C 4.1875 -4.992188 4.347656 -4.78125 4.453125 -4.53125 L 4.515625 -4.53125 L 4.828125 -5.359375 L 5.5 -5.359375 L 4.359375 0 L 3.65625 0 L 3.796875 -0.984375 L 3.75 -0.984375 C 3.519531 -0.691406 3.25 -0.4375 2.9375 -0.21875 C 2.632812 -0.0078125 2.300781 0.09375 1.9375 0.09375 Z M 2.21875 -0.625 C 2.46875 -0.625 2.707031 -0.710938 2.9375 -0.890625 C 3.175781 -1.078125 3.390625 -1.320312 3.578125 -1.625 C 3.773438 -1.9375 3.925781 -2.28125 4.03125 -2.65625 C 4.082031 -2.851562 4.113281 -3.03125 4.125 -3.1875 C 4.144531 -3.351562 4.15625 -3.507812 4.15625 -3.65625 C 4.15625 -3.96875 4.066406 -4.222656 3.890625 -4.421875 C 3.722656 -4.617188 3.492188 -4.71875 3.203125 -4.71875 C 2.941406 -4.71875 2.703125 -4.632812 2.484375 -4.46875 C 2.265625 -4.3125 2.070312 -4.085938 1.90625 -3.796875 C 1.738281 -3.515625 1.609375 -3.191406 1.515625 -2.828125 C 1.421875 -2.472656 1.375 -2.097656 1.375 -1.703125 C 1.375 -1.347656 1.445312 -1.078125 1.59375 -0.890625 C 1.738281 -0.710938 1.945312 -0.625 2.21875 -0.625 Z M 2.21875 -0.625 "/>
  <path id="glyph0-1" d="M 0.40625 0 L 1.921875 -7.140625 L 2.8125 -7.140625 L 1.453125 -0.796875 L 4.203125 -0.796875 L 4.03125 0 Z M 0.40625 0 "/>
  <path id="glyph0-0" d="M 0.9375 0 L 0.9375 -7.140625 L 5.046875 -7.140625 L 5.046875 0 Z M 1.453125 -0.515625 L 4.546875 -0.515625 L 4.546875 -6.625 L 1.453125 -6.625 Z M 1.453125 -0.515625 "/>
 </defs>
 <image width="497" height="279" xlink:href="svg/8/45_10.jpg"/>
 <g>
  <path style="fill:none;stroke-width:2;stroke-linecap:butt;stroke-linejoin:round;stroke:rgb(100%,100%,100%);stroke-opacity:0.6;stroke-miterlimit:10;" transform=" rotate(  340 375.627 46.635) " d="M 352 49.636719 L 353.515625 42.496094 L 354.40625 42.496094 L 353.046875 48.839844 L 355.796875 48.839844 L 355.625 49.636719 Z M 352 49.636719 "/>
  <path style="fill:none;stroke-width:2;stroke-linecap:butt;stroke-linejoin:round;stroke:rgb(100%,100%,100%);stroke-opacity:0.6;stroke-miterlimit:10;" transform=" rotate(  340 375.627 46.635) " d="M 358.308594 49.730469 C 357.878906 49.730469 357.53125 49.582031 357.261719 49.277344 C 356.988281 48.964844 356.855469 48.507812 356.855469 47.902344 C 356.855469 47.402344 356.917969 46.929688 357.042969 46.480469 C 357.175781 46.035156 357.359375 45.636719 357.589844 45.292969 C 357.816406 44.949219 358.09375 44.679688 358.417969 44.480469 C 358.738281 44.285156 359.09375 44.183594 359.480469 44.183594 C 359.832031 44.183594 360.121094 44.277344 360.339844 44.464844 C 360.558594 44.644531 360.71875 44.855469 360.824219 45.105469 L 360.886719 45.105469 L 361.199219 44.277344 L 361.871094 44.277344 L 360.730469 49.636719 L 360.027344 49.636719 L 360.167969 48.652344 L 360.121094 48.652344 C 359.890625 48.945312 359.621094 49.199219 359.308594 49.417969 C 359.003906 49.628906 358.671875 49.730469 358.308594 49.730469 Z M 358.589844 49.011719 C 358.839844 49.011719 359.078125 48.925781 359.308594 48.746094 C 359.546875 48.558594 359.761719 48.316406 359.949219 48.011719 C 360.144531 47.699219 360.296875 47.355469 360.402344 46.980469 C 360.453125 46.785156 360.484375 46.605469 360.496094 46.449219 C 360.515625 46.285156 360.527344 46.128906 360.527344 45.980469 C 360.527344 45.667969 360.4375 45.414062 360.261719 45.214844 C 360.09375 45.019531 359.863281 44.917969 359.574219 44.917969 C 359.3125 44.917969 359.074219 45.003906 358.855469 45.167969 C 358.636719 45.324219 358.441406 45.550781 358.277344 45.839844 C 358.109375 46.121094 357.980469 46.445312 357.886719 46.808594 C 357.792969 47.164062 357.746094 47.539062 357.746094 47.933594 C 357.746094 48.289062 357.816406 48.558594 357.964844 48.746094 C 358.109375 48.925781 358.316406 49.011719 358.589844 49.011719 Z M 358.589844 49.011719 "/>
  <path style="fill:none;stroke-width:2;stroke-linecap:butt;stroke-linejoin:round;stroke:rgb(100%,100%,100%);stroke-opacity:0.6;stroke-miterlimit:10;" transform=" rotate(  340 375.627 46.635) " d="M 362.316406 49.636719 L 363.925781 42.042969 L 364.816406 42.042969 L 364.175781 45.058594 C 364.058594 45.589844 363.960938 46.003906 363.878906 46.292969 C 363.792969 46.585938 363.738281 46.777344 363.707031 46.871094 L 363.722656 46.871094 L 366.253906 44.277344 L 367.300781 44.277344 L 365.003906 46.574219 L 366.425781 49.636719 L 365.457031 49.636719 L 364.332031 47.121094 L 363.613281 47.699219 L 363.207031 49.636719 Z M 362.316406 49.636719 "/>
  <path style="fill:none;stroke-width:2;stroke-linecap:butt;stroke-linejoin:round;stroke:rgb(100%,100%,100%);stroke-opacity:0.6;stroke-miterlimit:10;" transform=" rotate(  340 375.627 46.635) " d="M 369.222656 49.730469 C 368.597656 49.730469 368.117188 49.554688 367.785156 49.199219 C 367.449219 48.835938 367.285156 48.339844 367.285156 47.714844 C 367.285156 47.289062 367.339844 46.867188 367.457031 46.449219 C 367.582031 46.035156 367.757812 45.652344 367.988281 45.308594 C 368.226562 44.964844 368.511719 44.695312 368.847656 44.496094 C 369.179688 44.289062 369.550781 44.183594 369.957031 44.183594 C 370.464844 44.183594 370.847656 44.292969 371.097656 44.511719 C 371.355469 44.730469 371.488281 45.039062 371.488281 45.433594 C 371.488281 45.777344 371.378906 46.097656 371.160156 46.386719 C 370.949219 46.667969 370.613281 46.898438 370.144531 47.074219 C 369.683594 47.242188 369.089844 47.324219 368.363281 47.324219 L 368.191406 47.324219 C 368.179688 47.378906 368.175781 47.441406 368.175781 47.511719 C 368.175781 47.574219 368.175781 47.632812 368.175781 47.683594 C 368.175781 48.089844 368.273438 48.414062 368.472656 48.652344 C 368.667969 48.894531 368.972656 49.011719 369.378906 49.011719 C 369.628906 49.011719 369.867188 48.976562 370.097656 48.902344 C 370.324219 48.832031 370.574219 48.726562 370.847656 48.589844 L 370.847656 49.339844 C 370.585938 49.457031 370.335938 49.550781 370.097656 49.621094 C 369.855469 49.691406 369.566406 49.730469 369.222656 49.730469 Z M 368.316406 46.605469 L 368.394531 46.605469 C 368.789062 46.605469 369.152344 46.574219 369.488281 46.511719 C 369.832031 46.441406 370.105469 46.320312 370.316406 46.152344 C 370.523438 45.988281 370.628906 45.769531 370.628906 45.496094 C 370.628906 45.320312 370.570312 45.179688 370.457031 45.074219 C 370.339844 44.960938 370.160156 44.902344 369.910156 44.902344 C 369.585938 44.902344 369.273438 45.054688 368.972656 45.355469 C 368.679688 45.648438 368.460938 46.066406 368.316406 46.605469 Z M 368.316406 46.605469 "/>
  <path style="fill:none;stroke-width:2;stroke-linecap:butt;stroke-linejoin:round;stroke:rgb(100%,100%,100%);stroke-opacity:0.6;stroke-miterlimit:10;" transform=" rotate(  340 375.627 46.635) " d="M 377.65625 49.730469 C 376.851562 49.730469 376.226562 49.492188 375.78125 49.011719 C 375.332031 48.523438 375.109375 47.855469 375.109375 47.011719 C 375.109375 46.585938 375.15625 46.152344 375.25 45.714844 C 375.351562 45.269531 375.503906 44.851562 375.703125 44.464844 C 375.910156 44.070312 376.171875 43.714844 376.484375 43.402344 C 376.796875 43.089844 377.15625 42.847656 377.5625 42.667969 C 377.976562 42.492188 378.445312 42.402344 378.96875 42.402344 C 379.632812 42.402344 380.210938 42.535156 380.703125 42.792969 L 380.34375 43.542969 C 380.164062 43.449219 379.960938 43.367188 379.734375 43.292969 C 379.515625 43.222656 379.257812 43.183594 378.96875 43.183594 C 378.46875 43.183594 378.035156 43.300781 377.671875 43.527344 C 377.304688 43.746094 377.003906 44.042969 376.765625 44.417969 C 376.523438 44.785156 376.347656 45.191406 376.234375 45.636719 C 376.117188 46.085938 376.0625 46.535156 376.0625 46.980469 C 376.0625 47.597656 376.210938 48.082031 376.515625 48.433594 C 376.828125 48.777344 377.257812 48.949219 377.8125 48.949219 C 378.082031 48.949219 378.347656 48.925781 378.609375 48.871094 C 378.878906 48.820312 379.140625 48.746094 379.390625 48.652344 L 379.390625 49.433594 C 379.128906 49.527344 378.863281 49.601562 378.59375 49.652344 C 378.332031 49.703125 378.019531 49.730469 377.65625 49.730469 Z M 377.65625 49.730469 "/>
  <path style="fill:none;stroke-width:2;stroke-linecap:butt;stroke-linejoin:round;stroke:rgb(100%,100%,100%);stroke-opacity:0.6;stroke-miterlimit:10;" transform=" rotate(  340 375.627 46.635) " d="M 380.527344 49.636719 L 382.152344 42.042969 L 383.027344 42.042969 L 381.417969 49.636719 Z M 380.527344 49.636719 "/>
  <path style="fill:none;stroke-width:2;stroke-linecap:butt;stroke-linejoin:round;stroke:rgb(100%,100%,100%);stroke-opacity:0.6;stroke-miterlimit:10;" transform=" rotate(  340 375.627 46.635) " d="M 384.78125 49.730469 C 384.351562 49.730469 384.003906 49.582031 383.734375 49.277344 C 383.460938 48.964844 383.328125 48.507812 383.328125 47.902344 C 383.328125 47.402344 383.390625 46.929688 383.515625 46.480469 C 383.648438 46.035156 383.832031 45.636719 384.0625 45.292969 C 384.289062 44.949219 384.566406 44.679688 384.890625 44.480469 C 385.210938 44.285156 385.566406 44.183594 385.953125 44.183594 C 386.304688 44.183594 386.59375 44.277344 386.8125 44.464844 C 387.03125 44.644531 387.191406 44.855469 387.296875 45.105469 L 387.359375 45.105469 L 387.671875 44.277344 L 388.34375 44.277344 L 387.203125 49.636719 L 386.5 49.636719 L 386.640625 48.652344 L 386.59375 48.652344 C 386.363281 48.945312 386.09375 49.199219 385.78125 49.417969 C 385.476562 49.628906 385.144531 49.730469 384.78125 49.730469 Z M 385.0625 49.011719 C 385.3125 49.011719 385.550781 48.925781 385.78125 48.746094 C 386.019531 48.558594 386.234375 48.316406 386.421875 48.011719 C 386.617188 47.699219 386.769531 47.355469 386.875 46.980469 C 386.925781 46.785156 386.957031 46.605469 386.96875 46.449219 C 386.988281 46.285156 387 46.128906 387 45.980469 C 387 45.667969 386.910156 45.414062 386.734375 45.214844 C 386.566406 45.019531 386.335938 44.917969 386.046875 44.917969 C 385.785156 44.917969 385.546875 45.003906 385.328125 45.167969 C 385.109375 45.324219 384.914062 45.550781 384.75 45.839844 C 384.582031 46.121094 384.453125 46.445312 384.359375 46.808594 C 384.265625 47.164062 384.21875 47.539062 384.21875 47.933594 C 384.21875 48.289062 384.289062 48.558594 384.4375 48.746094 C 384.582031 48.925781 384.789062 49.011719 385.0625 49.011719 Z M 385.0625 49.011719 "/>
  <path style="fill:none;stroke-width:2;stroke-linecap:butt;stroke-linejoin:round;stroke:rgb(100%,100%,100%);stroke-opacity:0.6;stroke-miterlimit:10;" transform=" rotate(  340 375.627 46.635) " d="M 390.648438 43.386719 C 390.511719 43.386719 390.398438 43.347656 390.304688 43.261719 C 390.21875 43.179688 390.179688 43.066406 390.179688 42.917969 C 390.179688 42.742188 390.226562 42.589844 390.320312 42.464844 C 390.421875 42.339844 390.570312 42.277344 390.757812 42.277344 C 391.070312 42.277344 391.226562 42.429688 391.226562 42.730469 C 391.226562 42.941406 391.164062 43.101562 391.039062 43.214844 C 390.921875 43.332031 390.792969 43.386719 390.648438 43.386719 Z M 388.804688 49.636719 L 389.945312 44.277344 L 390.820312 44.277344 L 389.679688 49.636719 Z M 388.804688 49.636719 "/>
  <path style="fill:none;stroke-width:2;stroke-linecap:butt;stroke-linejoin:round;stroke:rgb(100%,100%,100%);stroke-opacity:0.6;stroke-miterlimit:10;" transform=" rotate(  340 375.627 46.635) " d="M 391.382812 49.636719 L 392.523438 44.277344 L 393.242188 44.277344 L 393.132812 45.261719 L 393.179688 45.261719 C 393.324219 45.074219 393.46875 44.902344 393.617188 44.746094 C 393.773438 44.582031 393.945312 44.445312 394.132812 44.339844 C 394.328125 44.238281 394.554688 44.183594 394.804688 44.183594 C 394.898438 44.183594 394.996094 44.191406 395.101562 44.199219 C 395.203125 44.199219 395.304688 44.214844 395.398438 44.246094 L 395.195312 45.042969 C 395.015625 45.003906 394.851562 44.980469 394.695312 44.980469 C 394.359375 44.980469 394.0625 45.089844 393.804688 45.308594 C 393.542969 45.527344 393.324219 45.808594 393.148438 46.152344 C 392.980469 46.488281 392.859375 46.832031 392.789062 47.183594 L 392.257812 49.636719 Z M 391.382812 49.636719 "/>
  <path style="fill:none;stroke-width:2;stroke-linecap:butt;stroke-linejoin:round;stroke:rgb(100%,100%,100%);stroke-opacity:0.6;stroke-miterlimit:10;" transform=" rotate(  340 375.627 46.635) " d="M 397.304688 49.730469 C 396.679688 49.730469 396.199219 49.554688 395.867188 49.199219 C 395.53125 48.835938 395.367188 48.339844 395.367188 47.714844 C 395.367188 47.289062 395.421875 46.867188 395.539062 46.449219 C 395.664062 46.035156 395.839844 45.652344 396.070312 45.308594 C 396.308594 44.964844 396.59375 44.695312 396.929688 44.496094 C 397.261719 44.289062 397.632812 44.183594 398.039062 44.183594 C 398.546875 44.183594 398.929688 44.292969 399.179688 44.511719 C 399.4375 44.730469 399.570312 45.039062 399.570312 45.433594 C 399.570312 45.777344 399.460938 46.097656 399.242188 46.386719 C 399.03125 46.667969 398.695312 46.898438 398.226562 47.074219 C 397.765625 47.242188 397.171875 47.324219 396.445312 47.324219 L 396.273438 47.324219 C 396.261719 47.378906 396.257812 47.441406 396.257812 47.511719 C 396.257812 47.574219 396.257812 47.632812 396.257812 47.683594 C 396.257812 48.089844 396.355469 48.414062 396.554688 48.652344 C 396.75 48.894531 397.054688 49.011719 397.460938 49.011719 C 397.710938 49.011719 397.949219 48.976562 398.179688 48.902344 C 398.40625 48.832031 398.65625 48.726562 398.929688 48.589844 L 398.929688 49.339844 C 398.667969 49.457031 398.417969 49.550781 398.179688 49.621094 C 397.9375 49.691406 397.648438 49.730469 397.304688 49.730469 Z M 396.398438 46.605469 L 396.476562 46.605469 C 396.871094 46.605469 397.234375 46.574219 397.570312 46.511719 C 397.914062 46.441406 398.1875 46.320312 398.398438 46.152344 C 398.605469 45.988281 398.710938 45.769531 398.710938 45.496094 C 398.710938 45.320312 398.652344 45.179688 398.539062 45.074219 C 398.421875 44.960938 398.242188 44.902344 397.992188 44.902344 C 397.667969 44.902344 397.355469 45.054688 397.054688 45.355469 C 396.761719 45.648438 396.542969 46.066406 396.398438 46.605469 Z M 396.398438 46.605469 "/>
  <g style="fill:rgb(30.196078%,50.196078%,70.196078%);fill-opacity:1;" transform=" rotate(  340 375.627 46.635) ">
   <use xlink:href="#glyph0-1" y="49.634976" x="351.591878"/>
   <use xlink:href="#glyph0-2" y="49.634976" x="356.371878"/>
   <use xlink:href="#glyph0-3" y="49.634976" x="362.051878"/>
   <use xlink:href="#glyph0-4" y="49.634976" x="366.801878"/>
   <use xlink:href="#glyph0-5" y="49.634976" x="371.791878"/>
   <use xlink:href="#glyph0-6" y="49.634976" x="374.391878"/>
   <use xlink:href="#glyph0-7" y="49.634976" x="380.261878"/>
   <use xlink:href="#glyph0-2" y="49.634976" x="382.841878"/>
   <use xlink:href="#glyph0-8" y="49.634976" x="388.521878"/>
   <use xlink:href="#glyph0-9" y="49.634976" x="391.101878"/>
   <use xlink:href="#glyph0-4" y="49.634976" x="394.881878"/>
  </g>
 </g>
</svg>

<svg xmlns="http://www.w3.org/2000/svg" xmlns:xlink="http://www.w3.org/1999/xlink" viewBox="0 0 497 279"> <defs overflow="visible" style="stroke:none">  <path id="h" d="m.3 0 1.1-5.4h.7v1l.4-.5.5-.4.7-.2H4l.3.2-.2.7h-.5c-.3-.1-.6-.1-.9.2l-.7.9-.3 1L1.2 0Zm0 0"/>  <path id="g" d="M2.1-6.3h-.3l-.1-.5.1-.4.4-.2c.3 0 .5.2.5.5 0 .2 0 .4-.2.5l-.4.2ZM.3 0l1.1-5.4h.9L1.2 0Zm0 0"/>  <path id="f" d="m.3 0 1.6-7.6h.9L1.2 0Zm0 0"/>  <path id="e" d="M3.3 0c-.8 0-1.5 0-2-.5C1-1.1.8-1.8.8-2.6.7-3.1.7-3.5 1-4c-.1-.4 0-.8.3-1.2l.8-1L3-7l1.7-.2c.5 0 1.1.1 1.6.4l-.3.7a4 4 0 0 0-.7-.2l-.7-.2c-.6 0-1 .2-1.3.5-.4 0-.7.4-1 .8A4 4 0 0 0 1.9-4l-.2 1.3c0 .7.1 1.1.3 1.5.4.3 1 .5 1.4.5h.8L5-1v.8l-.8.2a5 5 0 0 1-1 0Zm0 0"/>  <path id="d" d="M2.4 0c-.6 0-1 0-1.4-.3C.6-.8.5-1.3.5-2c0-.3 0-.8.2-1.2 0-.4.3-.8.5-1.1.2-.4.5-.7.8-.8a2 2 0 0 1 1.2-.4c.5 0 .8.2 1.1.5.3 0 .4.4.4.8 0 .3-.1.7-.3 1-.4.2-.6.4-1 .6-.6.2-1.2.3-1.9.3h-.1v.3c0 .5 0 .8.3 1 .2.3.5.4.9.4l.7-.1A5 5 0 0 0 4-1v.7a6 6 0 0 1-.7.3h-.9Zm-.9-3 1.3-.1.7-.4c.2-.1.3-.4.3-.5l-.1-.6-.7-.1c-.2 0-.5.1-.9.4L1.6-3Zm0 0"/>  <path id="c" d="m.3 0 1.6-7.6h.9l-.8 3c.1.6 0 1-.2 1.3l-.1.5 2.5-2.6h1L3-3l1.4 3h-1L2.3-2.5l-.7.5-.4 2Zm0 0"/>  <path id="b" d="M2 0c-.6 0-.9 0-1.2-.3C.6-.7.5-1 .5-1.7c0-.5 0-1 .2-1.5l.5-1.1c.2-.4.5-.7.8-.9a2 2 0 0 1 1.1-.3c.4 0 .6.1.9.3l.5.7.3-.9h.7L4.4 0h-.7l.1-1c-.3.3-.5.6-.9.8-.3.2-.6.2-.9.2Zm.1-.5c.4-.1.6-.2.9-.5l.6-.6a4 4 0 0 0 .4-1 3 3 0 0 0 .1-.7 4 4 0 0 0 0-.4c.1-.3.1-.5-.1-.7-.3-.2-.5-.3-.8-.3-.3 0-.5 0-.7.2a2 2 0 0 0-.6.7l-.4 1-.1 1.1c0 .4 0 .6.2.8.1.2.3.3.6.3Zm.1-.1"/>  <path id="a" d="M.4 0 2-7.1h1L1.4-.8h2.8L4 0Zm0 0"/>  <path d="M1 0v-7.1h4V0Zm.4-.5h3.1v-6.1h-3Zm.1 0"/> </defs> <image xlink:href="svg/8/45_10.jpg" width="497" height="279"/> <path d="m352 49.6 1.5-7.1h1l-1.5 6.3h2.8l-.2.8Zm6.3.1c-.3 0-.8-.1-1-.4-.3-.3-.4-.8-.4-1.4l.1-1.4.6-1.2c.2-.4.4-.6.8-.8a2 2 0 0 1 1-.3c.5 0 .8 0 1.1.3 0 .1.1.4.2.5l.6-.7h.6l-1.2 5.3h-.7l.2-1-1 .9c-.2.1-.5.2-.9.2Zm.3-.7c.2 0 .4 0 .7-.3.2-.1.5-.4.7-.7a4 4 0 0 0 .4-1 3 3 0 0 0 .1-.6 4 4 0 0 0 0-.4c0-.3 0-.6-.2-.8-.3-.2-.4-.2-.7-.2-.3 0-.6 0-.7.2a2 2 0 0 0-.6.6l-.4 1-.2 1.2c0 .3.1.6.3.7 0 .3.3.3.6.3Zm3.7.6L364 42h1l-.9 3-.2 1.4-.2.5 2.6-2.6h1l-2.3 2.3 1.4 3h-1l-.9-2.5-1 .6-.3 2Zm6.9.1c-.6 0-1-.1-1.4-.5-.4-.4-.5-.9-.5-1.5 0-.4 0-.7.2-1.3 0-.4.3-.7.5-1 .2-.4.5-.8.8-1a2 2 0 0 1 1.2-.2c.5 0 .8 0 1 .3.4.2.5.5.5 1l-.3.8-1 .7-1.9.3h-.1v.4c0 .3 0 .7.3 1 .2.2.5.3.9.3h.6a5 5 0 0 0 .8-.4v.7a6 6 0 0 1-.7.3l-.9.1Zm-.9-3 1.3-.3c.2.1.4-.1.7-.2.2-.2.3-.4.3-.7l-.1-.4-.6-.2c-.3 0-.6.2-.9.5l-.6 1.2Zm9.4 3c-.8 0-1.5-.2-2-.7-.3-.5-.5-1-.5-2v-1.3l.6-1.2.7-1.1 1-.7 1.5-.3c.6 0 1.2.1 1.7.4l-.4.7a4 4 0 0 0-.6-.2l-.7-.1c-.5 0-1 .1-1.3.3-.4.2-.7.5-1 1a4 4 0 0 0-.4 1l-.2 1.5c-.1.6.1 1 .4 1.4.3.4.8.6 1.3.6h.8l.8-.3v.7l-.8.3a5 5 0 0 1-1 0Zm2.8-.1 1.7-7.6h.8l-1.6 7.6Zm4.3.1c-.4 0-.8-.1-1-.4-.4-.3-.6-.8-.6-1.4.1-.5.1-1 .3-1.4.1-.5.3-.9.6-1.2.2-.4.5-.6.8-.8a2 2 0 0 1 1-.3c.5 0 .8 0 1.1.3l.2.5.6-.7h.5l-1.1 5.3h-.7l.1-1-.8.9c-.3.1-.8.2-1 .2Zm.2-.7c.3 0 .6 0 .8-.3l.6-.7a4 4 0 0 0 .6-1 3 3 0 0 0-.1-.6 4 4 0 0 0 .1-.4c0-.3 0-.6-.3-.8-.1-.2-.4-.2-.7-.2-.2 0-.5 0-.7.2a2 2 0 0 0-.6.6l-.3 1-.2 1.2c0 .3 0 .6.2.7.2.3.4.3.7.3Zm5.6-5.6-.3-.1-.1-.4.1-.4c.1-.2.3-.2.5-.2s.4.1.4.4c0 .3 0 .4-.2.5l-.4.2Zm-1.8 6.2 1.1-5.3h1.1l-1.4 5.3Zm2.6 0 1.1-5.3h.7v1l.4-.6.5-.4.7-.1h.6l-.2.8h-.5c-.3 0-.6 0-.9.3-.3.2-.5.5-.7.9l-.3 1-.5 2.4Zm5.9.1c-.6 0-1.1-.1-1.4-.5-.4-.4-.5-.9-.5-1.5l.1-1.3c.2-.4.3-.7.6-1 .2-.4.5-.8.8-1a2 2 0 0 1 1.1-.2c.5 0 1 0 1.2.3.2.2.4.5.4 1 0 .2-.1.5-.4.8-.2.4-.5.6-1 .7l-1.8.3h-.1v.4c0 .3 0 .7.3 1 .1.2.4.3.9.3h.7a5 5 0 0 0 .7-.4v.7a6 6 0 0 1-.7.3l-.9.1Zm-.9-3 1.3-.3c.2.1.5-.1.7-.2.2-.2.3-.4.3-.7 0-.2 0-.3-.2-.4l-.5-.2c-.3 0-.6.2-1 .5-.1.2-.4.6-.5 1.2Zm0-.1" style="fill:none;stroke-width:2;stroke-linecap:butt;stroke-linejoin:round;stroke:#fff;stroke-opacity:.6;stroke-miterlimit:10" transform=" rotate(  340 375.627 46.635) "/> <g style="fill:#4d80b3;fill-opacity:1" transform=" rotate(  340 375.627 46.635) ">  <use xlink:href="#a" x="351.6" y="49.6"/>  <use xlink:href="#b" x="356.4" y="49.6"/>  <use xlink:href="#c" x="362.1" y="49.6"/>  <use xlink:href="#d" x="366.8" y="49.6"/>  <use xlink:href="#glyph0-5" x="371.8" y="49.6"/>  <use xlink:href="#e" x="374.4" y="49.6"/>  <use xlink:href="#f" x="380.3" y="49.6"/>  <use xlink:href="#b" x="382.8" y="49.6"/>  <use xlink:href="#g" x="388.5" y="49.6"/>  <use xlink:href="#h" x="391.1" y="49.6"/>  <use xlink:href="#d" x="394.9" y="49.6"/> </g></svg>
